small/extra/apps/standard/calibre-gui.svg

<?xml version="1.0" encoding="UTF-8" standalone="no"?>
<!-- Created with Inkscape (http://www.inkscape.org/) -->
<svg id="svg2" xmlns:rdf="http://www.w3.org/1999/02/22-rdf-syntax-ns#" xmlns="http://www.w3.org/2000/svg" height="100%" width="100%" version="1.1" xmlns:cc="http://creativecommons.org/ns#" viewBox="0 0 512 512" xmlns:dc="http://purl.org/dc/elements/1.1/">
 <metadata id="metadata60">
  <rdf:RDF>
   <cc:Work rdf:about="">
    <dc:format>image/svg+xml</dc:format>
    <dc:type rdf:resource="http://purl.org/dc/dcmitype/StillImage"/>
   </cc:Work>
  </rdf:RDF>
 </metadata>
 <rect id="rect4" rx="25.988" height="512" width="512" y="0" x="0" fill="#ae4a32"/>
 <path id="path6" d="m41 41v304.59c29.23 28.484 57.33 57.58 86.56 86.06 26.26 26.986 53.592 53.39 79.906 80.34h278.53c14.397 0 26-11.603 26-26v-403.78c-14.603-14.692-27.17-27.448-40.938-41.22-11.02 7.092-22.507 15.1-25.25 13.938-10.939-13.93-0.095-0.127-11.09-13.813-57.16-2.451-120.71 28.544-162.44 66.41-25.915 24.962-55.03-33.07-85.28-38.03-33.413-18.493-72.58-28.955-110.16-28.5 15.817 15.817 29.959 30.11 43.813 43.969-0.572 0.073-2.817-1-8.06-4.188l-71.589-39.781" fill-opacity="0.235"/>
 <text id="text8" style="word-spacing:0;letter-spacing:0" font-size="129.23px" line-height="125%" y="163.67" x="191.37" font-family="Gentium Book Basic">
  <tspan id="tspan10" y="163.67" x="191.37"/>
 </text>
 <text id="text12" style="text-anchor:middle" transform="scale(4.0128 .2492)" font-size="46.954px" y="307.63" x="244.77" font-family="Arial"/>
 <text id="text14" style="word-spacing:0;letter-spacing:0" font-size="129.23px" line-height="125%" y="83.669998" x="772.64001" font-family="Gentium Book Basic">
  <tspan id="tspan16" y="83.669998" x="772.64001"/>
 </text>
 <text id="text18" style="text-anchor:middle" transform="scale(4.0128 .2492)" font-size="46.954px" y="-13.398" x="389.62" font-family="Arial"/>
 <text id="text20" style="word-spacing:0;letter-spacing:0" font-size="129.23px" line-height="125%" y="-97.589996" x="-298.94" font-family="Gentium Book Basic">
  <tspan id="tspan22" y="-97.589996" x="-298.94"/>
 </text>
 <text id="text24" style="text-anchor:middle" transform="scale(4.0128 .2492)" font-size="46.954px" y="-740.75" x="122.58" font-family="Arial"/>
 <text id="text26" style="word-spacing:0;letter-spacing:0" font-size="129.23px" line-height="125%" y="-314.06" x="799.10999" font-family="Gentium Book Basic">
  <tspan id="tspan28" y="-314.06" x="799.10999"/>
 </text>
 <text id="text30" style="text-anchor:middle" transform="scale(4.0128 .2492)" font-size="46.954px" y="-1609.42" x="396.22" font-family="Arial"/>
 <text id="text32" style="word-spacing:0;letter-spacing:0" font-size="129.23px" line-height="125%" y="-394.07001" x="1380.38" font-family="Gentium Book Basic">
  <tspan id="tspan34" y="-394.07001" x="1380.38"/>
 </text>
 <text id="text36" style="text-anchor:middle" transform="scale(4.0128 .2492)" font-size="46.954px" y="-1930.46" x="541.07001" font-family="Arial"/>
 <text id="text38" style="word-spacing:0;letter-spacing:0" font-size="129.23px" line-height="125%" y="-866.46997" x="991.26001" font-family="Gentium Book Basic">
  <tspan id="tspan40" y="-866.46997" x="991.26001"/>
 </text>
 <text id="text42" style="text-anchor:middle" transform="scale(4.0128 .2492)" font-size="46.954px" y="-3826.1101" x="444.10001" font-family="Arial"/>
 <text id="text44" style="word-spacing:0;letter-spacing:0" font-size="129.23px" line-height="125%" y="-946.46997" x="1572.52" font-family="Gentium Book Basic">
  <tspan id="tspan46" y="-946.46997" x="1572.52"/>
 </text>
 <text id="text48" style="text-anchor:middle" transform="scale(4.0128 .2492)" font-size="46.954px" y="-4147.1401" x="588.95001" font-family="Arial"/>
 <text id="text50" style="word-spacing:0;letter-spacing:0" font-size="208.33px" line-height="125%" y="468.25" x="-260.28" font-family="Gentium Book Basic">
  <tspan id="tspan52" y="468.25" x="-260.28"/>
 </text>
 <path id="path54" d="m291.83 471v-322.5h-71.67v322.5zm-89.58-340.42-161.25-89.58v304.58l161.25 107.5zm268.75 215v-304.58l-161.25 89.58v322.5zm-35.83-304.58c-71.67 0-107.5 9.317-179.17 71.67-71.67-60.791-107.5-71.67-179.17-71.67l143.33 89.58h71.67z" fill="#fff"/>
</svg>

<?xml version="1.0" encoding="UTF-8" standalone="no"?>
<!-- Created with Inkscape (http://www.inkscape.org/) -->

<svg
   xmlns:dc="http://purl.org/dc/elements/1.1/"
   xmlns:cc="http://creativecommons.org/ns#"
   xmlns:rdf="http://www.w3.org/1999/02/22-rdf-syntax-ns#"
   xmlns:svg="http://www.w3.org/2000/svg"
   xmlns="http://www.w3.org/2000/svg"
   xmlns:inkscape="http://www.inkscape.org/namespaces/inkscape"
   version="1.1"
   width="100%"
   height="100%"
   viewBox="0 0 512 512"
   id="svg2">
  <metadata
     id="metadata60">
    <rdf:RDF>
      <cc:Work
         rdf:about="">
        <dc:format>image/svg+xml</dc:format>
        <dc:type
           rdf:resource="http://purl.org/dc/dcmitype/StillImage" />
      </cc:Work>
    </rdf:RDF>
  </metadata>
  <defs
     id="defs58" />
  <rect
     width="512"
     height="512"
     rx="25.988001"
     x="0"
     y="0"
     id="rect4"
     style="fill:#ae4a32" />
  <path
     d="m 41,41 v 304.59 c 29.23,28.484 57.33,57.58 86.56,86.06 26.26,26.986 53.592,53.39 79.906,80.34 h 278.53 c 14.397,0 26,-11.603 26,-26 V 82.21 c -14.603,-14.692 -27.17,-27.448 -40.938,-41.22 -11.02,7.092 -22.507,15.1 -25.25,13.938 -10.939,-13.93 -0.095,-0.127 -11.09,-13.813 -57.16,-2.451 -120.71,28.544 -162.44,66.41 -25.915,24.962 -55.03,-33.07 -85.28,-38.03 -33.413,-18.493 -72.58,-28.955 -110.16,-28.5 15.817,15.817 29.959,30.11 43.813,43.969 -0.572,0.073 -2.817,-1 -8.06,-4.188 L 41.001,40.995"
     inkscape:connector-curvature="0"
     id="path6"
     style="fill-opacity:0.23500001" />
  <text
     x="191.37"
     y="163.67"
     id="text8"
     style="font-size:129.22999573px;line-height:125%;letter-spacing:0;word-spacing:0;font-family:Gentium Book Basic">
    <tspan
       x="191.37"
       y="163.67"
       id="tspan10" />
  </text>
  <text
     x="244.77"
     y="307.63"
     transform="scale(4.0128,0.2492)"
     id="text12"
     style="font-size:46.95399857px;text-anchor:middle;font-family:Arial" />
  <text
     x="772.64001"
     y="83.669998"
     id="text14"
     style="font-size:129.22999573px;line-height:125%;letter-spacing:0;word-spacing:0;font-family:Gentium Book Basic">
    <tspan
       x="772.64001"
       y="83.669998"
       id="tspan16" />
  </text>
  <text
     x="389.62"
     y="-13.398"
     transform="scale(4.0128,0.2492)"
     id="text18"
     style="font-size:46.95399857px;text-anchor:middle;font-family:Arial" />
  <text
     x="-298.94"
     y="-97.589996"
     id="text20"
     style="font-size:129.22999573px;line-height:125%;letter-spacing:0;word-spacing:0;font-family:Gentium Book Basic">
    <tspan
       x="-298.94"
       y="-97.589996"
       id="tspan22" />
  </text>
  <text
     x="122.58"
     y="-740.75"
     transform="scale(4.0128,0.2492)"
     id="text24"
     style="font-size:46.95399857px;text-anchor:middle;font-family:Arial" />
  <text
     x="799.10999"
     y="-314.06"
     id="text26"
     style="font-size:129.22999573px;line-height:125%;letter-spacing:0;word-spacing:0;font-family:Gentium Book Basic">
    <tspan
       x="799.10999"
       y="-314.06"
       id="tspan28" />
  </text>
  <text
     x="396.22"
     y="-1609.42"
     transform="scale(4.0128,0.2492)"
     id="text30"
     style="font-size:46.95399857px;text-anchor:middle;font-family:Arial" />
  <text
     x="1380.38"
     y="-394.07001"
     id="text32"
     style="font-size:129.22999573px;line-height:125%;letter-spacing:0;word-spacing:0;font-family:Gentium Book Basic">
    <tspan
       x="1380.38"
       y="-394.07001"
       id="tspan34" />
  </text>
  <text
     x="541.07001"
     y="-1930.46"
     transform="scale(4.0128,0.2492)"
     id="text36"
     style="font-size:46.95399857px;text-anchor:middle;font-family:Arial" />
  <text
     x="991.26001"
     y="-866.46997"
     id="text38"
     style="font-size:129.22999573px;line-height:125%;letter-spacing:0;word-spacing:0;font-family:Gentium Book Basic">
    <tspan
       x="991.26001"
       y="-866.46997"
       id="tspan40" />
  </text>
  <text
     x="444.10001"
     y="-3826.1101"
     transform="scale(4.0128,0.2492)"
     id="text42"
     style="font-size:46.95399857px;text-anchor:middle;font-family:Arial" />
  <text
     x="1572.52"
     y="-946.46997"
     id="text44"
     style="font-size:129.22999573px;line-height:125%;letter-spacing:0;word-spacing:0;font-family:Gentium Book Basic">
    <tspan
       x="1572.52"
       y="-946.46997"
       id="tspan46" />
  </text>
  <text
     x="588.95001"
     y="-4147.1401"
     transform="scale(4.0128,0.2492)"
     id="text48"
     style="font-size:46.95399857px;text-anchor:middle;font-family:Arial" />
  <text
     x="-260.28"
     y="468.25"
     id="text50"
     style="font-size:208.33000183px;line-height:125%;letter-spacing:0;word-spacing:0;font-family:Gentium Book Basic">
    <tspan
       x="-260.28"
       y="468.25"
       id="tspan52" />
  </text>
  <path
     d="M 291.83,471 V 148.5 H 220.16 V 471 z M 202.25,130.58 41,41 v 304.58 l 161.25,107.5 z M 471,345.58 V 41 l -161.25,89.58 v 322.5 z M 435.167,41 c -71.67,0 -107.5,9.317 -179.17,71.67 C 184.327,51.879 148.497,41 76.827,41 l 143.33,89.58 h 71.67 z"
     inkscape:connector-curvature="0"
     id="path54"
     style="fill:#ffffff" />
</svg>
